X:1
T:James V. Reid
T:Mrs. Ida C. Reid
T:Get Ye On to Canaan
%%score { ( 1 2 ) | ( 3 4 ) }
L:1/8
M:4/4
K:E
V:1 treble 
V:2 treble 
V:3 bass 
V:4 bass 
V:1
{/x} B,2 | EEE>F G G2 A | BBe>e B3 B | ccc>c B G2 G/-G/ | %4
w: ||||
w: ||* * * * * He's|faith\- ful who has pro\- mised, "Not a|
w: |||* * * * * * Up\- *|
w: ||||
 GFG^A[Q:1/4=48]"^Largo" !fermata!B2[Q:1/4=120]"^Allegretto" B2 | EEE>F G G2 A | BBe>e B3 B | %7
w: that bright, hap\- py land, No|use to live in bon\- dage, There's|free\- dom for us all; If|
w: hoof be left be\- hind." He'll|feed you heav\- 'nly man\- na, With|quail a\- long the way; With|
w: on the oth\- er side. Al\-|though you may find gi\- ants, "The|Lord will fight for you;" Just|
w: |||
 ccc>c B G2 G/-G/ | GFG^A[Q:1/4=48]"^Largo" !fermata!B3"^Chorus"[Q:1/4=120]"^Allegretto" B/B/ | %9
w: you would take pos\- ses\- sion, Oh, *|heed the Lead\- er's call. I re\-|
w: fire by night He'll lead you, With *|a pil\- lar of cloud * *|
w: keep your eyes up\- on Him, He'll *|take you safe\- ly through. * *|
w: * ive\- * * * * Praise *|God, these all are mine! * *|
 eeee (c B2) G/F/ | EEEE (C B,2) B, | EEEF G<BBE | GFG^A B3 B/B/ | eeee (c B2) G/F/ | %14
w: mem\- ber well the day * When He|washed my sins a\- way, * And|led me from the wil\- der\- ness To|Ca\- naan's bliss\- ful clime; I can|nev\- er tell you how, * But I|
w: |||||
w: |||||
w: |||||
 EEEE (C B,2) B, | EEEF G<BBE | G<G FF[Q:1/4=48]"^Largo" !fermata!E2 |] %17
w: have the bless\- ing now; * And|oh, I am so hap\- py, oh, So|hap\- py all the time.|
w: |||
w: |||
w: |||
V:2
 B,2 | B,B,B,>D E E2 F | GGG>G G3 G | AAA>A G E2 E/-E/ | EEEE D2 D2 | B,B,B,>D E E2 F | %6
w: Oh,|get ye on to Ca\- naan, Don't|die in E\- gypt's sand; There's|bread \and milk a\- bun\- dant In *|||
w: Oh,|get ye on to Ca\- naan, A\-|rise, make up your mind! *||||
w: Don't|fear the road to tra\- vel, The|sea will o\- pen wide; The|Lord will safe\- ly land you * *|||
w: Oh,|Ca\- naan is a good land, A|land of run\- ning brooks, Of|foun\- tains in the val\- leys, Of *|rills in shad\- y nooks; A|land of wheat and bar\- ley, Pome\-|
 GGG>G G3 G | AAA>A G E2 E/-E/ | EEEE D3 =A/A/ | GGGG (A G2) E/B,/ | B,B,B,B, (C B,2) B, | %11
w: |||||
w: |||||
w: |||||
w: gra\- nates, rich and fine, With|ol\- * oil and hon\- ey, * *||||
 B,B,B,D E<EEE | EEEE D3 =A/A/ | GGGG (A G2) E/B,/ | B,B,B,B, (C B,2) B, | B,B,B,D E<EEE | %16
w: |||||
w: |||||
w: |||||
w: |||||
 E<E DD B,2 |] %17
w: |
w: |
w: |
w: |
V:3
 B,2 | G,G,G,>A, B, B,2 B, | EEB,>B, E3 E | EEE>E E B,2 B,/-B,/ | ^A,A,A,C B,2 =A,2 | %5
 G,G,G,>A, B, B,2 B, | EEB,>B, E3 E | EEE>E E B,2 B,/-B,/ | ^A,A,A,C B,3 B,/B,/ | %9
 B,B,B,B, E3 B,/A,/ | G,G,G,G, (C, B,,2) B,, | G,G,G,A, B,<G,G,G, | ^A,A,A,C B,3 B,/B,/ | %13
 B,B,B,B, E3 B,/A,/ | G,G,G,G, (C, B,,2) B,, | G,G,G,A, B,<G,G,G, | B,<B, A,A, G,2 |] %17
V:4
 B,,2 | E,E,E,>E, E, E,2 E, | E,E,E,>E, E,3 E, | A,A,A,>A, E, E,2 E,/-E,/ | %4
 F,F,F,F, !fermata!B,,2 B,,2 | E,E,E,>E, E, E,2 E, | E,E,E,>E, E,3 E, | A,A,A,>A, E, E,2 E,/-E,/ | %8
 F,F,F,F, !fermata!B,,3 B,,/B,,/ | E,E,E,E, E,3 E,/E,/ | E,E,E,E, (C, B,,2) B,, | %11
 E,E,E,E, E,<E,E,E, | F,F,F,F, B,,3 B,,/B,,/ | E,E,E,E, E,3 E,/E,/ | E,E,E,E, (C, B,,2) B,, | %15
 E,E,E,E, E,<E,E,E, | B,<B, B,,B,, !fermata!E,2 |] %17

